!!!!SEGMENT: pl-cz--iii-47--007_bulakowski-stefan--msza-as-veritas-mea.krn
!!!cenid: 18xx:698
!!!COM: Bułakowski, Stefan
!!!COM-rismid: pe30085804
!!!CDT: 1784-1852
!!!CNT:
!!!OPR: Msza As
!!!OTL: Veritas mea
!!!OMV: 007
!!!PDT:
!!!AGN: Sacred; Mass
!!!SMS-siglum: PL-CZ
!!!SMS-shelfmark: III-47
!!!SMS-shelfwork: 001-007 M
!!!SMS-variant:
!!!SMS-altvar:
!!!NIFC-rismid: 300000053
!!!URL-scan: http://repozytorium.nifc.pl/skany/pl-cz-nut--iii-47
!!!ONB-nifc: UWAGA: części Mszy: Kyrie, Gloria, Justus ut palma, Credo, Et incarnatus, Et resurrexit,
!!!AIN: 2 clars 2 cor 1 empty 2 fagot 2 tenor 1 tromt
!!!key:
**kern	**text	**kern	**text	**kern	**text	**kern	**dynam	**kern	**dynam	**kern	**dynam	**kern	**dynam	**kern	**dynam	**kern	**dynam	**kern	**dynam
*part10	*part10	*part9	*part9	*part8	*part8	*part7	*part7	*part6	*part6	*part5	*part5	*part4	*part4	*part3	*part3	*part2	*part2	*part1	*part1
*staff10	*staff10	*staff9	*staff9	*staff8	*staff8	*staff7	*	*staff6	*	*staff5	*	*staff4	*	*staff3	*	*staff2	*	*staff1	*
*Iempty	*	*Itenor	*	*Itenor	*	*Itromt	*	*Icor	*	*Icor	*	*Ifagot	*	*Ifagot	*	*Iclars	*	*Iclars	*
*I"Baſso.	*	*I"Tenore 2do	*	*I"Tenore 1mo	*	*I"Trombone.	*	*I"Corno 2do in As.	*	*I"Corno 1mo in As.	*	*I"Fagotto. 2do	*	*I"Fagotto 1mo	*	*I"Clarinetto 2do in B.	*	*I"Clarinetto 1mo in B.	*
*I'B	*	*I'T 2	*	*I'T 1	*	*I'trb	*	*I'cor 2 in A|b	*	*I'cor 1 in A|b	*	*I'fag 2	*	*I'fag 1	*	*I'cl 2 in B|b	*	*I'cl 1 in B|b	*
*group3	*	*group3	*	*group3	*	*group2	*	*group2	*	*group2	*	*group1	*	*group1	*	*group1	*	*group1	*
*clefF4	*	*clefC4	*	*clefC4	*	*clefF4	*	*clefG2	*	*clefG2	*	*clefF4	*	*clefF4	*	*clefG2	*	*clefG2	*
*	*	*	*	*	*	*	*	*ITrd-2c-3	*	*ITrd-2c-3	*	*	*	*	*	*ITrd1c2	*	*ITrd1c2	*
*k[b-e-a-]	*	*k[b-e-a-]	*	*k[b-e-a-]	*	*k[b-e-a-]	*	*k[b-e-a-]	*	*k[b-e-a-]	*	*k[b-e-a-]	*	*k[b-e-a-]	*	*k[b-e-a-]	*	*k[b-e-a-]	*
*E-:	*	*E-:	*	*E-:	*	*E-:	*	*	*	*	*	*E-:	*	*E-:	*	*E-:	*	*E-:	*
*M2/4	*	*M2/4	*	*M2/4	*	*M2/4	*	*M2/4	*	*M2/4	*	*M2/4	*	*M2/4	*	*M2/4	*	*M2/4	*
=1	=1	=1	=1	=1	=1	=1	=1	=1	=1	=1	=1	=1	=1	=1	=1	=1	=1	=1	=1
*2\right	*	*2\right	*	*2\right	*	*2\right	*	*2\right	*	*2\right	*	*2\right	*	*2\right	*	*2\right	*	*2\right	*
!LO:TX:a:t=4	!	!LO:TX:a:t=41.	!	!LO:TX:a:t=24.	!	!	!LO:DY:b:t=p.	!	!LO:DY:b	!	!LO:DY:b:t=p.	!	!LO:DY:b	!LO:TX:a:t=Solo.	!	!	!LO:DY:b:t=p.	!	!LO:DY:b
!LO:TX:a:t=Adagio	!	!LO:TX:a:t=Adagio.	!	!LO:TX:a:t=Adagio	!	!LO:TX:a:t=Adagio	!	!LO:TX:a:t=Adagio in Es.	!	!LO:TX:a:t=Adagio in Es.	!	!LO:TX:a:t=Adagio	!	!LO:TX:a:t=Adagio	!	!LO:TX:a:t=Adagio	!	!LO:TX:a:t=Adagio	!
!LO:TX:b:t=Offertorium	!	!LO:TX:b:t=Offertorium	!	!LO:TX:b:t=Offertorium	!	!LO:TX:b:t=Offertorium	!	!LO:TX:b:t=Offertorium	!	!LO:TX:b:t=Offertorium	!	!LO:TX:b:t=Offertorium	!	!LO:TX:b:t=Offertorium	!	!LO:TX:b:t=Offerlorium	!	!LO:TX:b:t=Offertorium.	!
!LO:N:vis=00	!	!	!	!	!	!	!	!	!	!	!	!	!	!	!	!	!	!	!
0r	.	2r	.	2r	.	16E-\	p	16g/	p	16ee-\	p	16E-\	p	8.e-\L	.	16B-/KL	p	16g/KL	p
.	.	.	.	.	.	16r	.	8g/L	.	8ee-\L	.	16r	.	.	.	8B-/	.	8g/	.
.	.	.	.	.	.	16E-\	.	.	.	.	.	16E-\	.	.	.	.	.	.	.
.	.	.	.	.	.	16r	.	8g/	.	8ee-\	.	16r	.	32B-\LL	.	8B-/	.	8g/	.
.	.	.	.	.	.	.	.	.	.	.	.	.	.	32G\JJJ	.	.	.	.	.
.	.	.	.	.	.	16E-\	.	.	.	.	.	16E-\LL	.	16E-\LL	.	.	.	.	.
.	.	.	.	.	.	16r	.	8g/J	.	8ee-\J	.	16G\	.	16e-\	.	8B-/	.	8g/	.
.	.	.	.	.	.	8r	.	.	.	.	.	16A-\	.	16d\	.	.	.	.	.
.	.	.	.	.	.	.	.	16g/	.	16ee-\	.	16B-\JJ	.	16d-X\JJ	.	16B-/Jk	.	16g/Jk	.
=2	=2	=2	=2	=2	=2	=2	=2	=2	=2	=2	=2	=2	=2	=2	=2	=2	=2	=2	=2
.	.	2r	.	2r	.	16AA-/	.	16e-/	.	16ee-\	.	8A-\	.	32c\LLL	.	16c/KL	.	16e-/KL	.
.	.	.	.	.	.	.	.	.	.	.	.	.	.	32A-\	.	.	.	.	.
.	.	.	.	.	.	16r	.	16r	.	8ee-\L	.	.	.	32E-\	.	8c/	.	8e-/	.
.	.	.	.	.	.	.	.	.	.	.	.	.	.	32C\JJJ	.	.	.	.	.
.	.	.	.	.	.	16AA-/	.	8r	.	.	.	8AA-/	.	8AA-/	.	.	.	.	.
.	.	.	.	.	.	16r	.	.	.	8ee-\	.	.	.	.	.	8c/	.	8e-/	.
.	.	.	.	.	.	4AAn^>/	.	4r	.	.	.	4AAn^/	.	16r	.	.	.	.	.
.	.	.	.	.	.	.	.	.	.	8ee-^\J	.	.	.	16c\LL	.	8c^>/	.	8g-X^/	.
.	.	.	.	.	.	.	.	.	.	.	.	.	.	16dn\	.	.	.	.	.
.	.	.	.	.	.	.	.	.	.	16ee-\	.	.	.	16e-\JJ	.	16c/Jk	.	16g-/Jk	.
!	!	!	!	!	!	!	!	!	!	!	!	!LO:LB:g=original	!	!	!	!	!	!	!
=3	=3	=3	=3	=3	=3	=3	=3	=3	=3	=3	=3	=3	=3	=3	=3	=3	=3	=3	=3
.	.	2r	.	2r	.	16BB-/	.	16ee-\	.	16gg\	.	16BB-/	.	16B-\LL	.	16B-/KL	.	16g/KL	.
.	.	.	.	.	.	16r	.	8ee-\L	.	8gg\L	.	16r	.	16e-\	.	8B-/	.	8g/	.
.	.	.	.	.	.	16BB-/	.	.	.	.	.	16BB-/	.	16g\	.	.	.	.	.
.	.	.	.	.	.	16r	.	8ee-\	.	8gg\	.	16r	.	16e-\JJ	.	8B-/	.	8g/	.
.	.	.	.	.	.	16BB-/	.	.	.	.	.	16BB-/	.	8B-T\L	.	.	.	.	.
.	.	.	.	.	.	16r	.	8b-\J	.	8ff\J	.	16r	.	.	.	8d/	.	8a-/	.
.	.	.	.	.	.	16BB-/	.	.	.	.	.	16BB-/	.	16c\L	.	.	.	.	.
.	.	.	.	.	.	16r	.	16b-/	.	16ff\	.	16r	.	16d\JJ	.	16d/Jk	.	16a-/Jk	.
!	!	!	!	!	!	!LO:LB:g=original	!	!	!	!	!	!	!	!LO:LB:g=original	!	!	!	!	!
=4	=4	=4	=4	=4	=4	=4	=4	=4	=4	=4	=4	=4	=4	=4	=4	=4	=4	=4	=4
.	.	2r	.	2r	.	4BB-/	.	4b-/	.	4ff\	.	4BB-/	.	8.f\L	.	4d/	.	4a-\	.
.	.	.	.	.	.	.	.	.	.	.	.	.	.	32g\LL	.	.	.	.	.
.	.	.	.	.	.	.	.	.	.	.	.	.	.	32f\JJJ	.	.	.	.	.
.	.	.	.	.	.	8E-\	.	8g/	.	8ee-\	.	8E-\	.	16e-\LL	.	8e-/	.	16g\LL	.
.	.	.	.	.	.	.	.	.	.	.	.	.	.	16E-\	.	.	.	16e-\	.
.	.	.	.	.	.	8r	.	8r	.	8r	.	8r	.	16G\	.	8r	.	16g\	.
.	.	.	.	.	.	.	.	.	.	.	.	.	.	16B-\JJ	.	.	.	16b-\JJ	.
!	!	!	!	!	!	!	!	!	!	!LO:LB:g=original	!	!	!	!	!	!LO:LB:g=original	!	!LO:LB:g=original	!
=5	=5	=5	=5	=5	=5	=5	=5	=5	=5	=5	=5	=5	=5	=5	=5	=5	=5	=5	=5
!LO:TX:a:t=Solo.	!	!	!	!	!	!	!	!	!	!	!	!	!	!	!	!	!	!	!
8.e-\	Ve-	2r	.	2r	.	16E-\	.	16g/	.	16ee-\	.	16E-\	.	16G\KL	.	16B-/KL	.	16g\KL	.
.	.	.	.	.	.	16r	.	8g/L	.	8ee-\L	.	16r	.	8G\	.	8B-/	.	8g\	.
.	.	.	.	.	.	16E-\	.	.	.	.	.	16E-\	.	.	.	.	.	.	.
32B-\LLL	-ri-	.	.	.	.	16r	.	8g/	.	8ee-\	.	16r	.	16G\Jk	.	16B-/Jk	.	16g\Jk	.
32G\JJJ	.	.	.	.	.	.	.	.	.	.	.	.	.	.	.	.	.	.	.
16E-\	-tas	.	.	.	.	16E-\	.	.	.	.	.	16E-\	.	16r	.	16B-/LL	.	16g\LL	.
16e-\	Ve-	.	.	.	.	16r	.	8g/J	.	8ee-\J	.	16r	.	16G\LL	.	16g/	.	16ee-\	.
16d\	-ri-	.	.	.	.	8r	.	.	.	.	.	8r	.	16A-\	.	16a-/	.	16dd\	.
16d-X\	-tas	.	.	.	.	.	.	16g/	.	16ee-\	.	.	.	16B-\JJ	.	16b-/JJ	.	16dd-X\JJ	.
!	!	!	!	!	!	!	!	!LO:LB:g=original	!	!	!	!	!	!	!	!	!	!	!
=6	=6	=6	=6	=6	=6	=6	=6	=6	=6	=6	=6	=6	=6	=6	=6	=6	=6	=6	=6
32c'\LLL	me-	2r	.	2r	.	16AA-/	.	16e-/	.	16ee-\	.	16AA-/	.	8c\	.	16a-\KL	.	16cc\KL	.
32A-'\	.	.	.	.	.	.	.	.	.	.	.	.	.	.	.	.	.	.	.
32E-'\	.	.	.	.	.	16r	.	8e-/L	.	8ee-\L	.	16r	.	.	.	8a-\	.	8cc\	.
32C'\JJJ	.	.	.	.	.	.	.	.	.	.	.	.	.	.	.	.	.	.	.
!LO:SIC:l:s=a:v	!	!	!	!	!	!	!	!	!	!	!	!	!	!	!	!	!	!	!
8AA-/	-o	.	.	.	.	16AA-/	.	.	.	.	.	16AA-/	.	8r	.	.	.	.	.
.	.	.	.	.	.	16r	.	8e-/	.	8ee-\	.	16r	.	.	.	8a-\	.	8cc\	.
8r	.	.	.	.	.	16AA-/	.	.	.	.	.	16AA-/	.	4A-\	.	.	.	.	.
.	.	.	.	.	.	16r	.	8e-/J	.	8ee-\J	.	16r	.	.	.	8a-\	.	8cc\	.
8c\	ve-	.	.	.	.	8r	.	.	.	.	.	8r	.	.	.	.	.	.	.
.	.	.	.	.	.	.	.	16e-/	.	16ee-\	.	.	.	.	.	16a-\Jk	.	16cc\Jk	.
!LO:LB:g=original	!	!	!	!	!	!	!	!	!	!	!	!	!	!	!	!	!	!	!
=7	=7	=7	=7	=7	=7	=7	=7	=7	=7	=7	=7	=7	=7	=7	=7	=7	=7	=7	=7
(16B-\LL	-ri-	2r	.	2r	.	16BB-/	.	16g/	.	16ee-\	.	16BB-/	.	16B-\KL	.	16g/KL	.	16b-\KL	.
16e-\JJ)	.	.	.	.	.	16r	.	8g/	.	8ee-\	.	16r	.	8B-\	.	8g/	.	8b-\	.
(16d\LL	-tas	.	.	.	.	16BB-/	.	.	.	.	.	16BB-/	.	.	.	.	.	.	.
16c\JJ)	.	.	.	.	.	16r	.	16g/	.	16ee-\	.	16r	.	8B-\	.	16g/Jk	.	16b-\Jk	.
(16B-\LL	ve-	.	.	.	.	16BB-/	.	16b-/	.	16ff\	.	16BB-/	.	.	.	16f/KL	.	16a-\KL	.
16A-\JJ)	.	.	.	.	.	16r	.	8b-/	.	8ff\	.	16r	.	8B-\	.	8f/	.	8a-\	.
(32F\LLL	-ri-	.	.	.	.	16BB-/	.	.	.	.	.	16BB-/	.	.	.	.	.	.	.
32.c\JJJ)	.	.	.	.	.	.	.	.	.	.	.	.	.	.	.	.	.	.	.
.	.	.	.	.	.	16r	.	16b-/	.	16ff\	.	16r	.	16B-\Jk	.	16f/Jk	.	16a-\Jk	.
64B-\	-tas	.	.	.	.	.	.	.	.	.	.	.	.	.	.	.	.	.	.
32ryy	.	.	.	.	.	.	.	.	.	.	.	.	.	.	.	.	.	.	.
!	!	!	!	!	!	!	!	!	!	!	!	!LO:LB:g=original	!	!	!	!	!	!	!
=8	=8	=8	=8	=8	=8	=8	=8	=8	=8	=8	=8	=8	=8	=8	=8	=8	=8	=8	=8
(8.A-\L	me-	2r	.	2r	.	16BB-/	.	4b-/	.	4ff\	.	16BB-/	.	4d\	.	16f/KL	.	16a-\KL	.
.	.	.	.	.	.	16r	.	.	.	.	.	16r	.	.	.	8f/	.	8a-\	.
.	.	.	.	.	.	16BB-/	.	.	.	.	.	16BB-/	.	.	.	.	.	.	.
32B-\LL	.	.	.	.	.	16r	.	.	.	.	.	16r	.	.	.	16f/Jk	.	16a-\Jk	.
32A-\JJJ)	.	.	.	.	.	.	.	.	.	.	.	.	.	.	.	.	.	.	.
!LO:SIC:l:s=a:v	!	!	!	!	!	!	!	!	!	!LO:TX:t=P:problem=mixed beam	!	!	!	!	!	!	!	!	!
8G\	-o	.	.	.	.	8E-\	.	8g/	.	16ee-\LL	.	8E-\	.	8e-\	.	8e-/	.	16g/LL	.
.	.	.	.	.	.	.	.	.	.	16e-/	.	.	.	.	.	.	.	16e-/	.
8r	.	.	.	.	.	8r	.	8r	.	16g/	.	8r	.	8r	.	8r	.	16g/	.
.	.	.	.	.	.	.	.	.	.	16b-/JJ	.	.	.	.	.	.	.	16b-/JJ	.
!	!	!	!	!	!	!LO:LB:g=original	!	!	!	!	!	!	!	!	!	!	!	!	!
=9	=9	=9	=9	=9	=9	=9	=9	=9	=9	=9	=9	=9	=9	=9	=9	=9	=9	=9	=9
8.e-\	et	2r	.	2r	.	16E-\	.	16g/	.	16ee-\	.	16E-\	.	16G\KL	.	16B-/KL	.	16g\KL	.
.	.	.	.	.	.	16r	.	8g/L	.	8ee-\L	.	16r	.	8G\	.	8B-/	.	8g\	.
.	.	.	.	.	.	16E-\	.	.	.	.	.	16E-\	.	.	.	.	.	.	.
(32B-\LLL	mi-	.	.	.	.	16r	.	8g/	.	8ee-\	.	16r	.	16G\Jk	.	16B-/Jk	.	16g\Jk	.
32G\JJJ)	.	.	.	.	.	.	.	.	.	.	.	.	.	.	.	.	.	.	.
(16E-\LL	-se-	.	.	.	.	16E-\	.	.	.	.	.	16E-\	.	16r	.	16B-/LL	.	16g\LL	.
16e-\JJ)	.	.	.	.	.	16r	.	8g/J	.	8ee-\J	.	16r	.	16G\LL	.	16g/	.	16ee-\	.
(16d\LL	-ri-	.	.	.	.	8r	.	.	.	.	.	8r	.	16A-\	.	16a-/	.	16dd\	.
16d-X\JJ)	.	.	.	.	.	.	.	16g/	.	16ee-\	.	.	.	16B-\JJ	.	16b-/JJ	.	16dd-X\JJ	.
!	!	!	!	!	!	!	!	!	!	!	!	!	!	!LO:LB:g=original	!	!LO:LB:g=original	!	!LO:LB:g=original	!
=10	=10	=10	=10	=10	=10	=10	=10	=10	=10	=10	=10	=10	=10	=10	=10	=10	=10	=10	=10
32c'\LLL	-cor-	2r	.	2r	.	16AA-/	.	16e-/	.	16ee-\	.	16AA-/	.	8c\	.	16a-\KL	.	16cc\KL	.
32A-'\	.	.	.	.	.	.	.	.	.	.	.	.	.	.	.	.	.	.	.
32E-'\	.	.	.	.	.	16r	.	8e-/L	.	8ee-\L	.	16r	.	.	.	8a-\	.	8cc\	.
32C\JJJ	-di-	.	.	.	.	.	.	.	.	.	.	.	.	.	.	.	.	.	.
8AA-/	-a	.	.	.	.	16AA-/	.	.	.	.	.	16AA-/	.	8r	.	.	.	.	.
.	.	.	.	.	.	16r	.	8e-/	.	8ee-\	.	16r	.	.	.	8a-\	.	8cc\	.
8r	.	.	.	.	.	16AA-/	.	.	.	.	.	16AA-/	.	4A-\	.	.	.	.	.
.	.	.	.	.	.	16r	.	8e-/J	.	8ee-\J	.	16r	.	.	.	8a-\	.	8cc\	.
8c\	cor-	.	.	.	.	8r	.	.	.	.	.	8r	.	.	.	.	.	.	.
.	.	.	.	.	.	.	.	16e-/	.	16ee-\	.	.	.	.	.	16a-\Jk	.	16cc\Jk	.
!LO:LB:g=original	!	!	!	!	!	!	!	!	!	!LO:LB:g=original	!	!	!	!	!	!	!	!	!
=11	=11	=11	=11	=11	=11	=11	=11	=11	=11	=11	=11	=11	=11	=11	=11	=11	=11	=11	=11
8B-\	-di-	2r	.	2r	.	16BB-/	.	4ee-\	.	4gg\	.	16BB-/	.	16B-\KL	.	16g/KL	.	16b-\KL	.
.	.	.	.	.	.	16r	.	.	.	.	.	16r	.	8B-\	.	8g/	.	8b-\	.
(16G\LL	-a	.	.	.	.	16BB-/	.	.	.	.	.	16BB-/	.	.	.	.	.	.	.
16E-\JJ)	.	.	.	.	.	16r	.	.	.	.	.	16r	.	8B-\	.	16g/Jk	.	16b-\Jk	.
!LO:TX:b:t=P:problem= ozdobnik jak nieskończoność	!	!	!	!	!	!	!	!	!	!	!	!	!	!	!	!	!	!	!
8BB-/	me-	.	.	.	.	16BB-/	.	4b-/	.	4ff\	.	16BB-/	.	.	.	16f/KL	.	16a-\KL	.
.	.	.	.	.	.	16r	.	.	.	.	.	16r	.	8B-\	.	8f/	.	8a-\	.
16C/	-a	.	.	.	.	16BB-/	.	.	.	.	.	16BB-/	.	.	.	.	.	.	.
!LO:SIC:l:s=cum:v	!	!	!	!	!	!	!	!	!	!	!	!	!	!	!	!	!	!	!
16D/	com	.	.	.	.	16r	.	.	.	.	.	16r	.	16B-\Jk	.	16f/Jk	.	16a-\Jk	.
=12	=12	=12	=12	=12	=12	=12	=12	=12	=12	=12	=12	=12	=12	=12	=12	=12	=12	=12	=12
!	!	!	!	!	!	!LO:TX:t=P:problem=mixed beam	!	!	!	!	!	!LO:TX:t=P:problem=mixed beam	!	!	!	!	!	!	!
(8.F\L	ip-	2r	.	2r	.	8E-\L	.	4b-/	.	4ff\	.	8E-\L	.	4d\	.	16f/KL	.	16a-\KL	.
.	.	.	.	.	.	.	.	.	.	.	.	.	.	.	.	8f/	.	8a-\	.
.	.	.	.	.	.	8BB-/	.	.	.	.	.	8BB-/	.	.	.	.	.	.	.
32G\LL	.	.	.	.	.	.	.	.	.	.	.	.	.	.	.	16f/Jk	.	16a-\Jk	.
32F\JJJ)	.	.	.	.	.	.	.	.	.	.	.	.	.	.	.	.	.	.	.
!	!	!	!	!	!	!	!	!	!	!LO:TX:t=P:problem=mixed beam	!	!	!	!	!	!	!	!	!
8E-\	-so	.	.	.	.	8EE-/J	.	16g/LL	.	16ee-\LL	.	8EE-/J	.	8e-\	.	16e-/LL	.	16g\LL	.
.	.	.	.	.	.	.	.	16b-/	.	16b-/	.	.	.	.	.	16b-/	.	16b-\	.
8r	.	.	.	.	.	8r	.	16g/	.	16g/	.	8r	.	8r	.	16g/	.	16g\	.
.	.	.	.	.	.	.	.	16e-/JJ	.	16e-/JJ	.	.	.	.	.	16e-/JJ	.	16e-\JJ	.
!	!	!	!	!	!	!	!	!LO:LB:g=original	!	!	!	!	!	!	!	!	!	!	!
=13	=13	=13	=13	=13	=13	=13	=13	=13	=13	=13	=13	=13	=13	=13	=13	=13	=13	=13	=13
!	!	!	!	!	!	!LO:TX:a:t=4	!	!	!	!	!	!	!	!	!	!	!	!	!
!	!	!	!	!	!	!LO:N:vis=00	!	!	!	!	!	!	!	!	!	!	!	!	!
16.BB-/LL	et	2r	.	2r	.	0r	.	16b-/	.	16ff\	.	16BB-/	.	16B-\	.	16d/	.	16a-\	.
.	.	.	.	.	.	.	.	16r	.	16r	.	16r	.	16r	.	16r	.	16r	.
32C/JJk	.	.	.	.	.	.	.	.	.	.	.	.	.	.	.	.	.	.	.
16.D\LL	in	.	.	.	.	.	.	16b-/	.	16ff\	.	16BB-/	.	16B-\	.	16d/	.	16a-\	.
.	.	.	.	.	.	.	.	16r	.	16r	.	16r	.	16r	.	16r	.	16r	.
32E-\JJk	.	.	.	.	.	.	.	.	.	.	.	.	.	.	.	.	.	.	.
16.F\LL	no-	.	.	.	.	.	.	16b-/	.	16ff\	.	16BB-/	.	16B-\	.	16d/	.	16a-\	.
.	.	.	.	.	.	.	.	16r	.	16r	.	16r	.	16r	.	16r	.	16r	.
32G\JJk	.	.	.	.	.	.	.	.	.	.	.	.	.	.	.	.	.	.	.
16A-\	-mi-	.	.	.	.	.	.	16b-/	.	16ff\	.	16BB-/	.	16B-\	.	16d/	.	16a-\	.
16c\	-ne	.	.	.	.	.	.	16r	.	16r	.	16r	.	16r	.	16r	.	16r	.
!LO:LB:g=original	!	!	!	!	!	!	!	!	!	!	!	!	!	!	!	!	!	!	!
=14	=14	=14	=14	=14	=14	=14	=14	=14	=14	=14	=14	=14	=14	=14	=14	=14	=14	=14	=14
(8.B-\L	me-	2r	.	2r	.	.	.	16g/	.	16ee-\	.	16E-\	.	16B-\	.	16e-/	.	16g/	.
.	.	.	.	.	.	.	.	16r	.	16r	.	16r	.	16r	.	16r	.	16r	.
.	.	.	.	.	.	.	.	16g/	.	16ee-\	.	16E-\	.	16B-\	.	16e-/	.	16g/	.
*Xtuplet	*	*	*	*	*	*	*	*	*	*	*	*	*	*	*	*	*	*	*
!LO:TX:a:t=P:problem=brak klamry, brak ozn. trioli	!	!	!	!	!	!	!	!	!	!	!	!	!	!	!	!	!	!	!
48c\LL	.	.	.	.	.	.	.	16r	.	16r	.	16r	.	16r	.	16r	.	16r	.
48B-\	.	.	.	.	.	.	.	.	.	.	.	.	.	.	.	.	.	.	.
48G\JJJ)	.	.	.	.	.	.	.	.	.	.	.	.	.	.	.	.	.	.	.
8E-\	-o	.	.	.	.	.	.	16g/	.	16ee-\	.	16E-\	.	16B-\	.	16e-/	.	16g\LL	.
.	.	.	.	.	.	.	.	16r	.	16r	.	16r	.	16r	.	16r	.	32aa-^\L	.
.	.	.	.	.	.	.	.	.	.	.	.	.	.	.	.	.	.	32gg\JJJ	.
8r	.	.	.	.	.	.	.	8r	.	8r	.	8r	.	8r	.	8r	.	32ff\LLL	.
.	.	.	.	.	.	.	.	.	.	.	.	.	.	.	.	.	.	32ee-\	.
.	.	.	.	.	.	.	.	.	.	.	.	.	.	.	.	.	.	32dd\	.
.	.	.	.	.	.	.	.	.	.	.	.	.	.	.	.	.	.	32cc\JJJ	.
!	!	!	!	!	!	!	!	!	!	!	!	!	!	!	!	!LO:LB:g=original	!	!LO:LB:g=original	!
=15	=15	=15	=15	=15	=15	=15	=15	=15	=15	=15	=15	=15	=15	=15	=15	=15	=15	=15	=15
16.BB-/LL	e-	2r	.	2r	.	.	.	16b-/	.	16ff\	.	16BB-/	.	16d\	.	16f/	.	16a-\	.
.	.	.	.	.	.	.	.	16r	.	16r	.	16r	.	16r	.	16r	.	16r	.
32C/JJk	.	.	.	.	.	.	.	.	.	.	.	.	.	.	.	.	.	.	.
16.D\LL	-xal-	.	.	.	.	.	.	16b-/	.	16ff\	.	16BB-/	.	16d\	.	16f/	.	16a-\	.
.	.	.	.	.	.	.	.	16r	.	16r	.	16r	.	16r	.	16r	.	16r	.
32E-\JJk	.	.	.	.	.	.	.	.	.	.	.	.	.	.	.	.	.	.	.
16.F\LL	-ta-	.	.	.	.	.	.	16b-/	.	16ff\	.	16BB-/	.	16d\	.	16f/	.	16a-\	.
.	.	.	.	.	.	.	.	16r	.	16r	.	16r	.	16r	.	16r	.	16r	.
32G\JJk	.	.	.	.	.	.	.	.	.	.	.	.	.	.	.	.	.	.	.
16A-\	-bi-	.	.	.	.	.	.	16b-/	.	16ff\	.	16BB-/	.	16d\	.	16f/	.	16a-\	.
16c\	-tur	.	.	.	.	.	.	16r	.	16r	.	16r	.	16r	.	16r	.	16r	.
!	!	!	!	!	!	!	!	!	!	!	!	!	!	!LO:LB:g=original	!	!	!	!	!
=16	=16	=16	=16	=16	=16	=16	=16	=16	=16	=16	=16	=16	=16	=16	=16	=16	=16	=16	=16
16.B-\	cor-	2r	.	2r	.	.	.	16g/	.	16ee-\	.	16E-\	.	16B-\	.	16e-/	.	16g\	.
.	.	.	.	.	.	.	.	16r	.	16r	.	16r	.	16r	.	16r	.	16r	.
32G\	-nu	.	.	.	.	.	.	.	.	.	.	.	.	.	.	.	.	.	.
(32B-\LLL	e-	.	.	.	.	.	.	16g/	.	16ee-\	.	16E-\	.	16B-\	.	16e-/	.	16g\	.
32A-\	.	.	.	.	.	.	.	.	.	.	.	.	.	.	.	.	.	.	.
32F\	.	.	.	.	.	.	.	16r	.	16r	.	16r	.	16r	.	16r	.	16r	.
32G\JJJ)	.	.	.	.	.	.	.	.	.	.	.	.	.	.	.	.	.	.	.
8E-\	-jus	.	.	.	.	.	.	16g/	.	16ee-\	.	8E-\	.	16B-\LL	.	16e-/	.	16g\LL	.
.	.	.	.	.	.	.	.	16r	.	16r	.	.	.	16G\	.	16r	.	16b-T\	.
8r	.	.	.	.	.	.	.	8r	.	8r	.	8r	.	16A-\	.	8r	.	16cc\	.
.	.	.	.	.	.	.	.	.	.	.	.	.	.	16F\JJ	.	.	.	16dd\JJ	.
!LO:LB:g=original	!	!	!	!	!	!	!	!	!	!LO:LB:g=original	!	!LO:LB:g=original	!	!	!	!	!	!	!
=17	=17	=17	=17	=17	=17	=17	=17	=17	=17	=17	=17	=17	=17	=17	=17	=17	=17	=17	=17
8e-\	e-	2r	.	2r	.	4E-\	.	16r	.	16r	.	16E-\	.	16E-\	.	16r	.	16r	.
.	.	.	.	.	.	.	.	16g/	.	16ee-\	.	16r	.	16r	.	16g/	.	16b-\	.
8e-\	-xal-	.	.	.	.	.	.	16r	.	16r	.	16E-\	.	16E-\	.	16r	.	16r	.
.	.	.	.	.	.	.	.	16g/	.	16ee-\	.	16r	.	16r	.	16g/	.	16b-\	.
32e-'\LLL	-ta-	.	.	.	.	4r	.	16r	.	16r	.	16E-\	.	16E-\	.	16r	.	16r	.
32d'\	.	.	.	.	.	.	.	.	.	.	.	.	.	.	.	.	.	.	.
32c'\	.	.	.	.	.	.	.	16g/	.	16ee-\	.	16r	.	16r	.	16g/	.	16b-\	.
32B-'\JJJ	.	.	.	.	.	.	.	.	.	.	.	.	.	.	.	.	.	.	.
(32A-\LLL	-bi-	.	.	.	.	.	.	16r	.	16r	.	16E-\	.	16E-\	.	16r	.	16r	.
32G\JJJ)	.	.	.	.	.	.	.	.	.	.	.	.	.	.	.	.	.	.	.
(32F\LLL	-tur	.	.	.	.	.	.	16g/	.	16ee-\	.	16r	.	16r	.	16g/	.	16b-\	.
32E-\JJJ)	.	.	.	.	.	.	.	.	.	.	.	.	.	.	.	.	.	.	.
!	!	!	!	!	!	!LO:LB:g=original	!	!	!	!	!	!	!	!	!	!	!	!	!
=18	=18	=18	=18	=18	=18	=18	=18	=18	=18	=18	=18	=18	=18	=18	=18	=18	=18	=18	=18
8c\	e-	2r	.	2r	.	4AA-/	.	16r	.	16r	.	16AA-/	.	16AA-/	.	16r	.	16r	.
.	.	.	.	.	.	.	.	16ee-\	.	16ff\	.	16r	.	16r	.	16a-\	.	16cc\	.
8c\	-xal-	.	.	.	.	.	.	16r	.	16r	.	16AA-/	.	16AA-/	.	16r	.	16r	.
.	.	.	.	.	.	.	.	16ee-\	.	16ff\	.	16r	.	16r	.	16a-\	.	16cc\	.
32c'\LLL	-ta-	.	.	.	.	4r	.	16r	.	16r	.	16AA-/	.	16AA-/	.	16r	.	16r	.
32B-'\	.	.	.	.	.	.	.	.	.	.	.	.	.	.	.	.	.	.	.
32A-'\	.	.	.	.	.	.	.	16ee-\	.	16ff\	.	16r	.	16r	.	16a-\	.	16cc\	.
32G'\JJJ	.	.	.	.	.	.	.	.	.	.	.	.	.	.	.	.	.	.	.
(32F\LLL	-bi-	.	.	.	.	.	.	16r	.	16r	.	16AA-/	.	16AA-/	.	16r	.	16r	.
32E-\JJJ)	.	.	.	.	.	.	.	.	.	.	.	.	.	.	.	.	.	.	.
32D\LLL	-tur	.	.	.	.	.	.	16ee-\	.	16ff\	.	16r	.	16r	.	16a-\	.	16cc\	.
32C\JJJ	.	.	.	.	.	.	.	.	.	.	.	.	.	.	.	.	.	.	.
!	!	!	!	!	!	!	!	!LO:LB:g=original	!	!	!	!	!	!	!	!	!	!	!
=19	=19	=19	=19	=19	=19	=19	=19	=19	=19	=19	=19	=19	=19	=19	=19	=19	=19	=19	=19
8BB-/	cor-	2r	.	2r	.	4BB-/	.	16r	.	16r	.	16BB-/	.	16BB-/	.	16r	.	16r	.
.	.	.	.	.	.	.	.	16ee-\	.	16gg\	.	16r	.	16r	.	16e-/	.	16g/	.
(16E-\LL	-nu	.	.	.	.	.	.	16r	.	16r	.	16BB-/	.	16BB-/	.	16r	.	16r	.
16G\JJ)	.	.	.	.	.	.	.	16ee-\	.	16gg\	.	16r	.	16r	.	16e-/	.	16g/	.
8F\	cor-	.	.	.	.	4r	.	16r	.	16r	.	16BB-/	.	16BB-/	.	16r	.	16r	.
.	.	.	.	.	.	.	.	16b-/	.	16ff\	.	16r	.	16r	.	16d/	.	16a-/	.
8B-\	-nu	.	.	.	.	.	.	16r	.	16r	.	16BB-/	.	16BB-/	.	16r	.	16r	.
.	.	.	.	.	.	.	.	16b-/	.	16ff\	.	16r	.	16r	.	16d/	.	16a-/	.
!LO:LB:g=original	!	!	!	!	!	!	!	!	!	!	!	!	!	!	!	!LO:LB:g=original	!	!LO:LB:g=original	!
=20	=20	=20	=20	=20	=20	=20	=20	=20	=20	=20	=20	=20	=20	=20	=20	=20	=20	=20	=20
(8.A-\L	e-	2r	.	2r	.	8r	.	16r	.	16r	.	16BB-/	.	16BB-/	.	16r	.	16r	.
.	.	.	.	.	.	.	.	16b-/	.	16ff\	.	16r	.	16r	.	16d/	.	16a-\	.
.	.	.	.	.	.	8BB-/	.	16r	.	16r	.	16BB-/	.	16BB-/	.	16r	.	16r	.
32B-\LL	.	.	.	.	.	.	.	16b-/	.	16ff\	.	16r	.	16r	.	16d/	.	16a-\	.
32A-\JJJ)	.	.	.	.	.	.	.	.	.	.	.	.	.	.	.	.	.	.	.
8G\	-jus	.	.	.	.	8E-\	.	8g/	.	8ee-\	.	8E-\	.	8E-\	.	8e-/	.	16g\LL	.
.	.	.	.	.	.	.	.	.	.	.	.	.	.	.	.	.	.	16b-T\	.
8r	.	.	.	.	.	8r	.	8r	.	8r	.	8r	.	8r	.	8r	.	16cc\	.
.	.	.	.	.	.	.	.	.	.	.	.	.	.	.	.	.	.	16dd\JJ	.
!	!	!	!	!	!	!	!	!	!	!	!	!LO:LB:g=original	!	!LO:LB:g=original	!	!	!	!	!
=21	=21	=21	=21	=21	=21	=21	=21	=21	=21	=21	=21	=21	=21	=21	=21	=21	=21	=21	=21
8e-\	e-	2r	.	2r	.	4E-\	.	16r	.	16r	.	16E-\	.	16E-\	.	16r	.	16r	.
.	.	.	.	.	.	.	.	16g/	.	16ee-\	.	16r	.	16r	.	16g/	.	16b-\	.
(32e-\LLL	-xal-	.	.	.	.	.	.	16r	.	16r	.	16E-\	.	16E-\	.	16r	.	16r	.
32d\	.	.	.	.	.	.	.	.	.	.	.	.	.	.	.	.	.	.	.
32e-\	.	.	.	.	.	.	.	16g/	.	16ee-\	.	16r	.	16r	.	16g/	.	16b-\	.
32d\JJJ)	.	.	.	.	.	.	.	.	.	.	.	.	.	.	.	.	.	.	.
32e-'\LLL	-ta-	.	.	.	.	4r	.	16r	.	16r	.	16E-\	.	16E-\	.	16r	.	16r	.
32d'\	.	.	.	.	.	.	.	.	.	.	.	.	.	.	.	.	.	.	.
32c'\	.	.	.	.	.	.	.	16g/	.	16ee-\	.	16r	.	16r	.	16g/	.	16b-\	.
32B-'\JJJ	.	.	.	.	.	.	.	.	.	.	.	.	.	.	.	.	.	.	.
(32A-\LLL	-bi-	.	.	.	.	.	.	16r	.	16r	.	16E-\	.	16E-\	.	16r	.	16r	.
32G\JJJ)	.	.	.	.	.	.	.	.	.	.	.	.	.	.	.	.	.	.	.
(32F\LLL	-tur	.	.	.	.	.	.	16g/	.	16ee-\	.	16r	.	16r	.	16g/	.	16b-\	.
32E-\JJJ)	.	.	.	.	.	.	.	.	.	.	.	.	.	.	.	.	.	.	.
!	!	!	!	!	!	!	!	!	!	!LO:PB:g=original	!	!	!	!	!	!	!	!	!
=22	=22	=22	=22	=22	=22	=22	=22	=22	=22	=22	=22	=22	=22	=22	=22	=22	=22	=22	=22
8c\	e-	2r	.	2r	.	4AA-/	.	16r	.	16r	.	16AA-/	.	16AA-/	.	16r	.	16r	.
.	.	.	.	.	.	.	.	16ee-\	.	16ff\	.	16r	.	16r	.	16a-\	.	16cc\	.
(32c\LLL	-xal-	.	.	.	.	.	.	16r	.	16r	.	16AA-/	.	16AA-/	.	16r	.	16r	.
32B-\	.	.	.	.	.	.	.	.	.	.	.	.	.	.	.	.	.	.	.
32c\	.	.	.	.	.	.	.	16ee-\	.	16ff\	.	16r	.	16r	.	16a-\	.	16cc\	.
32B-\JJJ)	.	.	.	.	.	.	.	.	.	.	.	.	.	.	.	.	.	.	.
32c'\LLL	-ta-	.	.	.	.	4r	.	16r	.	16r	.	16AA-/	.	16AA-/	.	16r	.	16r	.
32B-'\	.	.	.	.	.	.	.	.	.	.	.	.	.	.	.	.	.	.	.
32A-'\	.	.	.	.	.	.	.	16ee-\	.	16ff\	.	16r	.	16r	.	16a-\	.	16cc\	.
32G'\JJJ	.	.	.	.	.	.	.	.	.	.	.	.	.	.	.	.	.	.	.
(32F\LLL	-bi-	.	.	.	.	.	.	16r	.	16r	.	16AA-/	.	16AA-/	.	16r	.	16r	.
32E-\JJJ)	.	.	.	.	.	.	.	.	.	.	.	.	.	.	.	.	.	.	.
(32D\LLL	-tur	.	.	.	.	.	.	16ee-\	.	16ff\	.	16r	.	16r	.	16a-\	.	16cc\	.
32C\JJJ)	.	.	.	.	.	.	.	.	.	.	.	.	.	.	.	.	.	.	.
!LO:LB:g=original	!	!	!	!	!	!	!	!	!	!	!	!	!	!	!	!	!	!	!
=23	=23	=23	=23	=23	=23	=23	=23	=23	=23	=23	=23	=23	=23	=23	=23	=23	=23	=23	=23
8BB-/	cor-	2r	.	2r	.	4BB-/	.	16r	.	16r	.	16BB-/	.	16BB-/	.	16r	.	16r	.
.	.	.	.	.	.	.	.	16ee-\	.	16gg\	.	16r	.	16r	.	16g/	.	16b-\	.
(16E-\LL	-nu	.	.	.	.	.	.	16r	.	16r	.	16BB-/	.	16BB-/	.	16r	.	16r	.
16G\JJ)	.	.	.	.	.	.	.	16ee-\	.	16gg\	.	16r	.	16r	.	16g/	.	16b-\	.
(8B-\L	e-	.	.	.	.	4r	.	16r	.	16r	.	16BB-/	.	16BB-/	.	16r	.	16r	.
.	.	.	.	.	.	.	.	16b-/	.	16ff\	.	16r	.	16r	.	16a-\	.	16dd\	.
8D\J)	.	.	.	.	.	.	.	16r	.	16r	.	16BB-/	.	16BB-/	.	16r	.	16r	.
.	.	.	.	.	.	.	.	16b-/	.	16ff\	.	16r	.	16r	.	16a-\	.	16dd\	.
!	!	!	!	!	!	!	!	!	!	!	!	!	!	!	!	!	!	!LO:LB:g=original	!
=24	=24	=24	=24	=24	=24	=24	=24	=24	=24	=24	=24	=24	=24	=24	=24	=24	=24	=24	=24
8E-\	-jus	2r	.	2r	.	8E-\	.	8g/	.	8ee-\	.	8E-\	.	8E-\	.	8g/	.	8ee-\	.
8r	.	.	.	.	.	8r	.	8r	.	8r	.	8r	.	8r	.	8r	.	16r	.
.	.	.	.	.	.	.	.	.	.	.	.	.	.	.	.	.	.	16ee-\	.
!LO:TX:a:t=P:problem= zmiana znaków przed kreską	!	!	!	!	!	!LO:TX:a:t=P:problem= zmiana znaków przed kreską	!	!LO:TX:a:t=P:problem= brak zmiany tonacji	!	!LO:TX:a:t=P:problem= brak zmiany tonacji	!	!LO:TX:a:t=P:problem= zmiana znaków przed kreską	!	!LO:TX:a:t=P:problem= zmiana znaków przed kreską	!	!LO:TX:a:t=P:problem= zmiana znaków przed kreską	!	!	!
4r	.	.	.	.	.	4E-^\	.	4b-^>/	.	4ee-^\	.	4E-\	.	4d-X\	.	4g^/	.	16dd\LL	.
.	.	.	.	.	.	.	.	.	.	.	.	.	.	.	.	.	.	16ee-T\	.
.	.	.	.	.	.	.	.	.	.	.	.	.	.	.	.	.	.	16ff\	.
!	!	!	!	!	!	!	!	!	!	!	!	!	!	!	!	!	!	!LO:TX:a:t=P:problem= zmiana znaków przed kreską	!
.	.	.	.	.	.	.	.	.	.	.	.	.	.	.	.	.	.	16ee-\JJ	.
!	!	!	!	!	!	!	!	!LO:LB:g=original	!	!	!	!	!	!	!	!LO:LB:g=original	!	!	!
=25||	=25||	=25||	=25||	=25||	=25||	=25||	=25||	=25||	=25||	=25||	=25||	=25||	=25||	=25||	=25||	=25||	=25||	=25||	=25||
*k[b-e-a-d-]	*	*k[b-e-a-d-]	*	*k[b-e-a-d-]	*	*k[b-e-a-d-]	*	*k[b-e-a-d-]	*	*k[b-e-a-d-]	*	*k[b-e-a-d-]	*	*k[b-e-a-d-]	*	*k[b-e-a-d-]	*	*k[b-e-a-d-]	*
*A-:	*	*A-:	*	*A-:	*	*A-:	*	*A-:	*	*A-:	*	*A-:	*	*A-:	*	*A-:	*	*A-:	*
!LO:TX:a:t=17.	!	!	!	!LO:TX:a:t=Solo.	!	!	!	!LO:TX:a:t=6.	!	!	!LO:DY:b	!	!	!	!	!	!	!LO:TX:a:t=Sol&colon;	!LO:DY:b
!LO:N:vis=00	!	!	!	!	!	!	!LO:DY:b:t=p.	!LO:N:vis=00	!	!	!	!	!	!	!	!	!	!	!
0r	.	2r	.	8c\	Ve-	8AA-/	p	0r	.	[2ee-\	p	4A-\	.	8c\L	.	(16c/LL	.	8cc\L	p
.	.	.	.	.	.	.	.	.	.	.	.	.	.	.	.	16e-/	.	.	.
.	.	.	.	16d-X\	-ri-	8r	.	.	.	.	.	.	.	16d-\L	.	16c/	.	16dd-\L	.
.	.	.	.	16c\	-tas	.	.	.	.	.	.	.	.	16c\JJ	.	16e-/JJ)	.	16cc\JJ	.
.	.	.	.	(16B-\LL	ve-	8E-\	.	.	.	.	.	4E-\	.	8.G\L	.	(16d-/LL	.	8.b-\L	.
.	.	.	.	16f\JJ)	.	.	.	.	.	.	.	.	.	.	.	16e-/	.	.	.
.	.	.	.	16e-\	-ri-	8r	.	.	.	.	.	.	.	.	.	16d-/	.	.	.
.	.	.	.	16G\	-tas	.	.	.	.	.	.	.	.	16B-\Jk	.	16e-/JJ)	.	16g\Jk	.
!	!	!	!	!LO:LB:g=original	!	!LO:LB:g=original	!	!	!	!	!	!LO:LB:g=original	!	!LO:LB:g=original	!	!	!	!	!
=26	=26	=26	=26	=26	=26	=26	=26	=26	=26	=26	=26	=26	=26	=26	=26	=26	=26	=26	=26
.	.	2r	.	(8.B-\L	me-	8E-\	.	.	.	4.ee-\]	.	16r	.	8.d-\L	.	16d-/LL	.	8.b-\L	.
.	.	.	.	.	.	.	.	.	.	.	.	16E-\LL	.	.	.	16e-/	.	.	.
.	.	.	.	.	.	8r	.	.	.	.	.	16F\	.	.	.	16d-/	.	.	.
.	.	.	.	32c\LL	.	.	.	.	.	.	.	16G\JJ	.	32e-\LL	.	16e-/JJ	.	32cc\LL	.
.	.	.	.	32B-\JJJ)	.	.	.	.	.	.	.	.	.	32d-\JJJ	.	.	.	32b-\JJJ	.
!	!	!	!	!LO:SIC:l:s=a:v	!	!	!	!	!	!	!	!	!	!	!	!	!	!	!
.	.	.	.	8A-\	-o	8AA-/	.	.	.	.	.	16A-\LL	.	8c\L	.	16c/LL	.	8a-\L	.
.	.	.	.	.	.	.	.	.	.	.	.	16E-\	.	.	.	16e-/	.	.	.
.	.	.	.	(16G\LL	ve-	8r	.	.	.	8r	.	16C\	.	16B-\L	.	16c/	.	16g\L	.
.	.	.	.	16A-\JJ)	.	.	.	.	.	.	.	16AA-\JJ	.	16c\JJ	.	16e-/JJ	.	16a-\JJ	.
=27	=27	=27	=27	=27	=27	=27	=27	=27	=27	=27	=27	=27	=27	=27	=27	=27	=27	=27	=27
!	!	!	!	!	!	!LO:TX:a:t=1.	!	!	!	!	!	!	!	!	!	!	!	!	!
.	.	2r	.	8B-\	-ri-	2r	.	.	.	[2ee-\	.	8G\	.	4G\	.	16d-/LL	.	8b-\L	.
.	.	.	.	.	.	.	.	.	.	.	.	.	.	.	.	16e-/	.	.	.
.	.	.	.	(16An\LL	-tas	.	.	.	.	.	.	8r	.	.	.	16d-/	.	16a\L	.
.	.	.	.	16B-\JJ)	.	.	.	.	.	.	.	.	.	.	.	16e-/JJ	.	16b-\JJ	.
.	.	.	.	(16c\LL	ve-	.	.	.	.	.	.	8A-\	.	16A-\LL	.	16c/LL	.	16cc\LL	.
.	.	.	.	16A\JJ)	.	.	.	.	.	.	.	.	.	16E-\	.	16e-/	.	16a-X\	.
.	.	.	.	16f\	-ri-	.	.	.	.	.	.	8r	.	16A-\	.	16c/	.	16ff\	.
.	.	.	.	16e-\	-tas	.	.	.	.	.	.	.	.	16c\JJ	.	16e-/JJ	.	16ee-\JJ	.
=28	=28	=28	=28	=28	=28	=28	=28	=28	=28	=28	=28	=28	=28	=28	=28	=28	=28	=28	=28
.	.	2r	.	(8.e-\L	me-	4r	.	.	.	4.ee-\]	.	8E-\	.	8.c\L	.	16c/LL	.	8.ee-\L	.
.	.	.	.	.	.	.	.	.	.	.	.	.	.	.	.	16e-/	.	.	.
.	.	.	.	.	.	.	.	.	.	.	.	8r	.	.	.	16c/	.	.	.
.	.	.	.	32d-\LL	.	.	.	.	.	.	.	.	.	32B-\LL	.	16e-/JJ	.	32dd-\LL	.
.	.	.	.	32c\JJJ)	.	.	.	.	.	.	.	.	.	32A-\JJJ	.	.	.	32cc\JJJ	.
!	!	!	!	!LO:SIC:l:s=a:v	!	!	!	!	!	!	!	!	!	!	!	!	!	!	!
.	.	.	.	(8B-\L	-o	4E-\	.	.	.	.	.	4E-\	.	8e-\	.	4g\	.	8b-\L	.
.	.	.	.	8Bn\J)	.	.	.	.	.	8r	.	.	.	8r	.	.	.	8bX\J	.
!	!	!	!	!LO:LB:g=original	!	!	!	!	!	!LO:LB:g=original	!	!	!	!	!	!	!	!LO:LB:g=original	!
=29	=29	=29	=29	=29	=29	=29	=29	=29	=29	=29	=29	=29	=29	=29	=29	=29	=29	=29	=29
!LO:N:vis=00	!	!	!	!	!	!	!	!LO:N:vis=0	!	!	!	!	!	!	!	!	!	!	!
0r	.	2r	.	8c\	et	8AA-/	.	1r	.	[2ee-\	.	4A-\	.	8c\L	.	(16c/LL	.	8cc\L	.
.	.	.	.	.	.	.	.	.	.	.	.	.	.	.	.	16e-/	.	.	.
.	.	.	.	(16d-\LL	mi-	8r	.	.	.	.	.	.	.	16d-\L	.	16c/	.	16dd-\L	.
.	.	.	.	16c\JJ)	.	.	.	.	.	.	.	.	.	16c\JJ	.	16e-/JJ)	.	16cc\JJ	.
.	.	.	.	(16B-X\LL	-se-	8E-\	.	.	.	.	.	4E-\	.	8.G\L	.	(16d-/LL	.	8.b-\L	.
.	.	.	.	16f\JJ)	.	.	.	.	.	.	.	.	.	.	.	16e-/	.	.	.
.	.	.	.	(16e-\LL	-ri-	8r	.	.	.	.	.	.	.	.	.	16d-/	.	.	.
.	.	.	.	16G\JJ)	.	.	.	.	.	.	.	.	.	16B-\Jk	.	16e-/JJ)	.	16g\Jk	.
!	!	!	!	!	!	!	!	!	!	!	!	!	!	!	!	!LO:LB:g=original	!	!	!
=30	=30	=30	=30	=30	=30	=30	=30	=30	=30	=30	=30	=30	=30	=30	=30	=30	=30	=30	=30
.	.	2r	.	8.B-\L	-cor-	8E-\	.	.	.	4.ee-\]	.	16r	.	8.d-\L	.	16d-/LL	.	8.b-\L	.
.	.	.	.	.	.	.	.	.	.	.	.	16E-\LL	.	.	.	16e-/	.	.	.
.	.	.	.	.	.	8r	.	.	.	.	.	16F\	.	.	.	16d-/	.	.	.
.	.	.	.	(32c\LL	-di-	.	.	.	.	.	.	16G\JJ	.	32e-\LL	.	16e-/JJ	.	32cc\LL	.
.	.	.	.	32B-\JJJ)	.	.	.	.	.	.	.	.	.	32d-\JJJ	.	.	.	32b-\JJJ	.
!	!	!	!	!	!	!	!	!	!	!	!	!	!	!	!	!	!	!LO:TX:a:t=P:problem=klamra łukowa	!
.	.	.	.	8A-\	-a	8AA-/	.	.	.	.	.	8A-\	.	8c\	.	16c/LL	.	24a-\LL	.
.	.	.	.	.	.	.	.	.	.	.	.	.	.	.	.	.	.	24e-\	.
.	.	.	.	.	.	.	.	.	.	.	.	.	.	.	.	16e-/	.	.	.
.	.	.	.	.	.	.	.	.	.	.	.	.	.	.	.	.	.	24a-\JJ	.
!	!	!	!	!	!	!	!	!	!	!	!	!	!	!	!	!	!	!LO:TX:a:t=P:problem=klamra łukowa	!
.	.	.	.	8c\	me-	8r	.	.	.	8r	.	8r	.	8r	.	16c/	.	24cc\LL	.
.	.	.	.	.	.	.	.	.	.	.	.	.	.	.	.	.	.	24ee-\	.
.	.	.	.	.	.	.	.	.	.	.	.	.	.	.	.	16e-/JJ	.	.	.
.	.	.	.	.	.	.	.	.	.	.	.	.	.	.	.	.	.	24aa-\JJ	.
!	!	!	!	!	!	!	!	!	!	!	!	!	!	!LO:LB:g=original	!	!	!	!	!
=31	=31	=31	=31	=31	=31	=31	=31	=31	=31	=31	=31	=31	=31	=31	=31	=31	=31	=31	=31
.	.	2r	.	(16B-\LL	-o	8BB-/	.	4g/	.	4ee-\	.	4BB-/	.	4B-\	.	4B-/	.	(16g\LL	.
.	.	.	.	16e-\JJ)	.	.	.	.	.	.	.	.	.	.	.	.	.	16b-\	.
.	.	.	.	(16dn\LL	cum	8r	.	.	.	.	.	.	.	.	.	.	.	16g\	.
.	.	.	.	16c\JJ)	.	.	.	.	.	.	.	.	.	.	.	.	.	16b-\JJ)	.
.	.	.	.	(16B-\LL	ip-	8BB-/	.	4b-/	.	4ff\	.	4BB-/	.	4A-\	.	4d/	.	16a-\LL	.
.	.	.	.	16A-\	.	.	.	.	.	.	.	.	.	.	.	.	.	(16b-\	.
.	.	.	.	16F\	.	8r	.	.	.	.	.	.	.	.	.	.	.	16a-\	.
.	.	.	.	16G\JJ)	.	.	.	.	.	.	.	.	.	.	.	.	.	16b-\JJ)	.
!	!	!	!	!LO:LB:g=original	!	!	!	!	!	!	!	!LO:LB:g=original	!	!	!	!	!	!	!
=32	=32	=32	=32	=32	=32	=32	=32	=32	=32	=32	=32	=32	=32	=32	=32	=32	=32	=32	=32
.	.	2r	.	8E-/	-so	8E-\	.	8g/	.	8ee-\	.	8E-\	.	8G\L	.	8e-/L	.	8g\L	.
.	.	.	.	8e-\	cum	8r	.	8r	.	8r	.	8E-'\L	.	8e-\	.	8e-'/	.	8ee-'\	.
.	.	.	.	8e-\	ip-	4r	.	4r	.	4r	.	8E-'\	.	8e-\	.	8e-'/	.	8ee-'\	.
.	.	.	.	8e-\	-so	.	.	.	.	.	.	8E-'\J	.	8e-\J	.	8e-'/J	.	8ee-'\J	.
=33	=33	=33	=33	=33	=33	=33	=33	=33	=33	=33	=33	=33	=33	=33	=33	=33	=33	=33	=33
!LO:N:vis=00	!	!	!	!	!	!	!	!LO:TX:a:t=2	!	!	!	!	!	!	!	!	!	!	!
!	!	!	!	!	!	!	!	!LO:N:vis=00	!	!	!	!	!	!	!	!	!	!	!
0r	.	2r	.	(8.e-\L	et	8E-\	.	1r	.	2ee-\	.	2G\	.	2B-\	.	(16d-X/LL	.	8ee-\	.
.	.	.	.	.	.	.	.	.	.	.	.	.	.	.	.	16e-/	.	.	.
.	.	.	.	.	.	8r	.	.	.	.	.	.	.	.	.	16d-/	.	8r	.
.	.	.	.	32d-X\LL	.	.	.	.	.	.	.	.	.	.	.	16e-/JJ)	.	.	.
.	.	.	.	32B-\JJJ)	.	.	.	.	.	.	.	.	.	.	.	.	.	.	.
.	.	.	.	8G/	in	4r	.	.	.	.	.	.	.	.	.	(16d-/LL	.	8.ee-^\L	.
.	.	.	.	.	.	.	.	.	.	.	.	.	.	.	.	16e-/	.	.	.
.	.	.	.	8r	.	.	.	.	.	.	.	.	.	.	.	16d-/	.	.	.
.	.	.	.	.	.	.	.	.	.	.	.	.	.	.	.	16e-/JJ)	.	32dd-X\LL	.
.	.	.	.	.	.	.	.	.	.	.	.	.	.	.	.	.	.	32b-\JJJ	.
!	!	!	!	!	!	!LO:LB:g=original	!	!	!	!	!	!	!	!	!	!	!	!	!
=34	=34	=34	=34	=34	=34	=34	=34	=34	=34	=34	=34	=34	=34	=34	=34	=34	=34	=34	=34
.	.	2r	.	8.f\L	no-	8AA-/	.	.	.	2ff\	.	2A-\	.	2c\	.	(16c/LL	.	8cc\	.
.	.	.	.	.	.	.	.	.	.	.	.	.	.	.	.	16e-/	.	.	.
.	.	.	.	.	.	8r	.	.	.	.	.	.	.	.	.	16c/	.	8r	.
.	.	.	.	(32e-\LL	-mi-	.	.	.	.	.	.	.	.	.	.	16e-/JJ)	.	.	.
.	.	.	.	32c\JJJ)	.	.	.	.	.	.	.	.	.	.	.	.	.	.	.
.	.	.	.	8A-\	-ne	4r	.	.	.	.	.	.	.	.	.	(16c/LL	.	8.ff^\L	.
.	.	.	.	.	.	.	.	.	.	.	.	.	.	.	.	16e-/	.	.	.
.	.	.	.	8r	.	.	.	.	.	.	.	.	.	.	.	16c/	.	.	.
.	.	.	.	.	.	.	.	.	.	.	.	.	.	.	.	16e-/JJ)	.	32ee-\LL	.
.	.	.	.	.	.	.	.	.	.	.	.	.	.	.	.	.	.	32cc\JJJ	.
!	!	!	!	!	!	!	!	!	!	!	!	!	!	!	!	!	!	!LO:LB:g=original	!
=35	=35	=35	=35	=35	=35	=35	=35	=35	=35	=35	=35	=35	=35	=35	=35	=35	=35	=35	=35
.	.	2r	.	(16G\LL	me-	8E-\	.	16r	.	16r	.	8E-\	.	16r	.	16r	.	16g\LL	.
.	.	.	.	16B-\JJ)	.	.	.	16dd-X\LL	.	16ee-\LL	.	.	.	16B-\LL	.	16g/LL	.	16b-\	.
.	.	.	.	(16d-X\LL	-o	8r	.	16dd-\	.	16ee-\	.	8r	.	16B-\	.	16g/	.	16dd-X\	.
.	.	.	.	16c\JJ)	.	.	.	16dd-\JJ	.	16ee-\JJ	.	.	.	16B-\JJ	.	16g/JJ	.	16cc\JJ	.
.	.	.	.	(16An\LL	ex-	8E-\	.	16r	.	16r	.	8E-\	.	16r	.	16r	.	16a\LL	.
.	.	.	.	16B-\JJ)	.	.	.	16dd-\LL	.	16ee-\LL	.	.	.	16B-\LL	.	16g/LL	.	16b-\	.
.	.	.	.	(16f\LL	-al-	8r	.	16dd-\	.	16ee-\	.	8r	.	16B-\	.	16g/	.	16ff\	.
.	.	.	.	16e-\JJ)	.	.	.	16dd-\JJ	.	16ee-\JJ	.	.	.	16B-\JJ	.	16g/JJ	.	16ee-\JJ	.
!	!	!	!	!LO:LB:g=original	!	!	!	!	!	!	!	!	!	!	!	!LO:LB:g=original	!	!	!
=36	=36	=36	=36	=36	=36	=36	=36	=36	=36	=36	=36	=36	=36	=36	=36	=36	=36	=36	=36
.	.	2r	.	8.e-\L	-ta-	8E-\	.	16r	.	16r	.	8E-\	.	16r	.	8.cc\L	.	8.ee-\L	.
.	.	.	.	.	.	.	.	16b-/LL	.	16dd-X\LL	.	.	.	16E-\LL	.	.	.	.	.
.	.	.	.	.	.	16r	.	16b-/	.	16dd-\	.	16r	.	16F\	.	.	.	.	.
.	.	.	.	16d-X\Jk	-bi-	16E-\	.	16b-/JJ	.	16dd-\JJ	.	16E-\	.	16G\JJ	.	16b-\Jk	.	16dd-X\Jk	.
.	.	.	.	8c\	-tur	8AA-/	.	16cc/	.	16cc\	.	8A-\	.	16A-\LL	.	16a-\	.	16cc'\	.
.	.	.	.	.	.	.	.	16r	.	16r	.	.	.	16G\	.	16ee-\LL	.	16ee-'\LL	.
.	.	.	.	8r	.	8r	.	8r	.	8r	.	8r	.	16A-\	.	16dd\	.	16ff'\	.
.	.	.	.	.	.	.	.	.	.	.	.	.	.	16B-\JJ	.	16dd-X\JJ	.	16gg'\JJ	.
!	!	!	!	!	!	!	!	!	!	!LO:LB:g=original	!	!	!	!	!	!	!	!	!
=37	=37	=37	=37	=37	=37	=37	=37	=37	=37	=37	=37	=37	=37	=37	=37	=37	=37	=37	=37
!LO:N:vis=00	!	!	!	!	!	!	!	!	!	!	!	!	!	!	!	!	!	!	!
0r	.	2r	.	(16A-\LL	cor-	8AA-/	.	16r	.	16r	.	8AA-/	.	16r	.	16r	.	16aa-\	.
.	.	.	.	16c\JJ)	.	.	.	16cc/LL	.	16ee-\LL	.	.	.	16A-\LL	.	16e-/LL	.	16r	.
.	.	.	.	8.e-\	-nu	8r	.	16cc/	.	16ee-\	.	8r	.	16A-\	.	16e-/	.	8.ee-^\L	.
.	.	.	.	.	.	.	.	16cc/JJ	.	16ee-\JJ	.	.	.	16A-\JJ	.	16e-/JJ	.	.	.
.	.	.	.	.	.	4r	.	16cc/LL	.	16ee-\LL	.	4r	.	16A-\LL	.	16e-/LL	.	.	.
.	.	.	.	(16c\LL	cor-	.	.	16cc/	.	16ee-\	.	.	.	16A-\	.	16e-/	.	16cc\L	.
.	.	.	.	16A-\)	.	.	.	16cc/	.	16ee-\	.	.	.	16A-\	.	16e-/	.	16a-\	.
.	.	.	.	16G-X'\JJ	-nu	.	.	16cc/JJ	.	16ee-\JJ	.	.	.	16A-\JJ	.	16e-/JJ	.	16g-X\JJ	.
!	!	!	!	!	!	!	!	!	!	!	!	!	!	!LO:LB:g=original	!	!	!	!	!
=38	=38	=38	=38	=38	=38	=38	=38	=38	=38	=38	=38	=38	=38	=38	=38	=38	=38	=38	=38
.	.	2r	.	(16F\LL	e-	8D-\	.	16r	.	16r	.	8D-\	.	16r	.	16r	.	16f\LL	.
.	.	.	.	16B-\JJ)	.	.	.	16dd-X\LL	.	16ff\LL	.	.	.	16A-\LL	.	16f/LL	.	16b-\JJ	.
.	.	.	.	8.d-X\	-jus	8r	.	16dd-\	.	16ff\	.	8r	.	16A-\	.	16f/	.	8.dd-X\L	.
.	.	.	.	.	.	.	.	16dd-\JJ	.	16ff\JJ	.	.	.	16A-\JJ	.	16f/JJ	.	.	.
.	.	.	.	.	.	4r	.	16dd-\LL	.	16ff\LL	.	4r	.	16A-\LL	.	16f/LL	.	.	.
.	.	.	.	(16B-\LL	cor-	.	.	16dd-\	.	16ff\	.	.	.	16A-\	.	16f/	.	16b-\L	.
.	.	.	.	16c\)	.	.	.	16dd-\	.	16ff\	.	.	.	16A-\	.	16f/	.	16cc\	.
.	.	.	.	16d-'\JJ	-nu	.	.	16dd-\JJ	.	16ff\JJ	.	.	.	16A-\JJ	.	16f/JJ	.	16dd-\JJ	.
!	!	!	!	!	!	!	!	!LO:LB:g=original	!	!	!	!LO:LB:g=original	!	!	!	!	!	!	!
=39	=39	=39	=39	=39	=39	=39	=39	=39	=39	=39	=39	=39	=39	=39	=39	=39	=39	=39	=39
.	.	2r	.	16c\LL	e-	8E-\	.	8cc/	.	8ee-\	.	8E-\	.	8A-\	.	8a-\	.	16cc'\LL	.
.	.	.	.	16e-\	.	.	.	.	.	.	.	.	.	.	.	.	.	16ee-'\	.
.	.	.	.	16d-\	.	8r	.	8r	.	8r	.	8r	.	8r	.	8r	.	16dd-'\	.
.	.	.	.	16c\JJ	.	.	.	.	.	.	.	.	.	.	.	.	.	16cc'\JJ	.
.	.	.	.	16B-\LL	.	4r	.	4r	.	4r	.	4r	.	4r	.	4r	.	16b-'\LL	.
.	.	.	.	16A-\	.	.	.	.	.	.	.	.	.	.	.	.	.	16a-'\	.
.	.	.	.	16G\	.	.	.	.	.	.	.	.	.	.	.	.	.	16g'\	.
.	.	.	.	16F\JJ	-jus	.	.	.	.	.	.	.	.	.	.	.	.	16f'\JJ	.
!	!	!	!	!LO:LB:g=original	!	!	!	!	!	!	!	!	!	!	!	!	!	!LO:LB:g=original	!
=40	=40	=40	=40	=40	=40	=40	=40	=40	=40	=40	=40	=40	=40	=40	=40	=40	=40	=40	=40
.	.	2r	.	8E-/L	cor-	4r	.	4r	.	4r	.	4r	.	4r	.	4r	.	8e-/	.
.	.	.	.	(32F/LL	-nu	.	.	.	.	.	.	.	.	.	.	.	.	8r	.
.	.	.	.	32E-/	.	.	.	.	.	.	.	.	.	.	.	.	.	.	.
.	.	.	.	32Dn/	.	.	.	.	.	.	.	.	.	.	.	.	.	.	.
.	.	.	.	32E-/JJJ)	.	.	.	.	.	.	.	.	.	.	.	.	.	.	.
.	.	.	.	(8.c\L	e-	4E-\	.	4b-/	.	4ee-\	.	4E-\	.	4d-X\	.	4g/	.	8.cc\L	.
.	.	.	.	16B-\Jk)	.	.	.	.	.	.	.	.	.	.	.	.	.	16b-\Jk	.
!	!	!	!	!	!	!LO:LB:g=original	!	!	!	!	!	!	!	!	!	!	!	!	!
=41	=41	=41	=41	=41	=41	=41	=41	=41	=41	=41	=41	=41	=41	=41	=41	=41	=41	=41	=41
2r	.	2r	.	8A-\	-jus	8AA-/	.	8cc/	.	8ee-\	.	8A-'\L	.	8c\L	.	8a-\L	.	8a-\L	.
.	.	.	.	8r	.	8r	.	8r	.	8r	.	8A-'\	.	8c\	.	8a-\	.	8cc\	.
!	!	!	!	!LO:TX:a:t=P:problem= zmiana znaków przed kreską	!	!	!	!	!	!	!	!	!	!	!	!	!	!	!
.	.	.	.	4r	.	8r	.	8r	.	8r	.	8G'\	.	8B-\	.	8g\	.	8b-\	.
!	!	!	!	!	!	!LO:TX:a:t=P:problem= zmiana znaków z kasownikiem	!	!	!	!	!	!LO:TX:a:t=P:problem= zmiana znaków z kasownikiem	!	!	!	!	!	!	!
!	!	!	!	!	!	!LO:TX:a:t=P:problem= zmiana znaków przed kreską	!	!LO:TX:a:t=P:problem= brak zmiany tonacji	!LO:DY:b:t=fo	!LO:TX:a:t=P:problem= brak zmiany tonacji	!	!LO:TX:a:t=P:problem= zmiana znaków przed kreską	!	!LO:TX:a:t=P:problem= zmiana znaków przed kreską	!	!	!	!	!
.	.	.	.	.	.	8AA-/	.	8b-/	f	8ff\	.	8F'\J	.	8A-\J	.	8f\J	.	8dd\J	.
!	!	!	!	!	!	!	!	!	!	!	!	!	!	!	!	!LO:LB:g=original	!	!	!
=42||	=42||	=42||	=42||	=42||	=42||	=42||	=42||	=42||	=42||	=42||	=42||	=42||	=42||	=42||	=42||	=42||	=42||	=42||	=42||
*k[b-e-a-]	*	*k[b-e-a-]	*	*k[b-e-a-]	*	*k[b-e-a-]	*	*k[b-e-a-]	*	*k[b-e-a-]	*	*k[b-e-a-]	*	*k[b-e-a-]	*	*k[b-e-a-]	*	*k[b-e-a-]	*
*E-:	*	*E-:	*	*E-:	*	*E-:	*	*E-:	*	*E-:	*	*E-:	*	*E-:	*	*E-:	*	*E-:	*
*	*	*	*	*	*	*	*	*tremolo	*	*	*	*tremolo	*	*tremolo	*	*tremolo	*	*	*
*	*	*	*	*	*	*	*	*tremolo	*	*	*	*	*	*	*	*	*	*	*
*	*	*	*	*	*	*	*	*	*	*	*	*tremolo	*	*	*	*	*	*	*
*	*	*	*	*	*	*	*	*	*	*	*	*	*	*tremolo	*	*	*	*	*
*	*	*	*	*	*	*	*	*	*	*	*	*	*	*	*	*tremolo	*	*	*
!	!	!	!	!	!	!	!	!	!	!	!	!	!	!	!	!	!LO:DY:b	!	!LO:DY:b
!LO:TX:a:t=P:problem= zmiana znaków z kasownikiem	!	!	!	!	!	!	!LO:DY:b	!	!	!	!LO:DY:b	!	!LO:DY:b:t=fo.	!	!LO:DY:b	!LO:TX:a:t=P:problem= zmiana znaków z kasownikiem	!	!LO:TX:a:t=P:problem= zmiana znaków z kasownikiem	!
8E-\	e-	8G/	E-	8e-\	e-	8E-\L	f	8g/L	.	8ee-\L	f	8E-\L	f	8G\L	ff	16g\LL	f	8ee-\L	f
.	.	.	.	.	.	.	.	.	.	.	.	.	.	.	.	16b-\	.	.	.
8G\	-xal-	8G/	-xal-	8e-\	-xal-	8E-\	.	8g/	.	8ee-\	.	8G\	.	8B-\	.	16g\	.	8dd\J	.
.	.	.	.	.	.	.	.	.	.	.	.	.	.	.	.	16b-\	.	.	.
8B-\	-ta-	8G/	-ta-	16g\LL	-ta-	8E-\J	.	8g/	.	8ee-\	.	8E-\	.	8G\	.	16g\	.	16gg\LL	.
.	.	.	.	(16f\JJ	.	.	.	.	.	.	.	.	.	.	.	16b-\	.	16ff\	.
16G\	-bi-	16G/	-bi-	16e-\)	-bi-	8r	.	8g/J	.	8ee-\J	.	8G\J	.	8B-\J	.	16g\	.	16ee-\	.
16E-\	-tur	16G/	-tur	16dn\	-tur	.	.	.	.	.	.	.	.	.	.	16b-\JJ	.	16dd\JJ	.
!LO:LB:g=original	!	!	!	!LO:LB:g=original	!	!	!	!	!	!	!	!	!	!	!	!	!	!	!
=43	=43	=43	=43	=43	=43	=43	=43	=43	=43	=43	=43	=43	=43	=43	=43	=43	=43	=43	=43
8E-\	cor-	8A-\	cor-	8c\	cor-	8AA-/L	.	8e-/L	.	8ee-\L	.	8E-\L	.	8A-\L	.	16a-\LL	.	8cc\L	.
.	.	.	.	.	.	.	.	.	.	.	.	.	.	.	.	16cc\	.	.	.
8E-\	-nu	8A-\	-nu	8c\	-nu	8AA-/	.	8e-/	.	8ee-\	.	8A-\	.	8c\	.	16a-\	.	8cc\J	.
.	.	.	.	.	.	.	.	.	.	.	.	.	.	.	.	16cc\	.	.	.
8E-\	e-	8A-\	e-	(16f\LL	e-	8AA-/J	.	8e-/	.	8ee-\	.	8E-\	.	8A-\	.	16a-\	.	16ff\LL	.
.	.	.	.	16e-\JJ)	.	.	.	.	.	.	.	.	.	.	.	16cc\	.	16ee-\	.
8E-\	-jus	8A-\	-jus	16dn\LL	-jus	8r	.	8e-/J	.	8ee-\J	.	8A-\J	.	8c\J	.	16a-\	.	16ddn\	.
.	.	.	.	16c\JJ	.	.	.	.	.	.	.	.	.	.	.	16cc\JJ	.	16cc\JJ	.
!	!	!LO:LB:g=original	!	!	!	!	!	!	!	!LO:LB:g=original	!	!	!	!LO:LB:g=original	!	!	!	!	!
=44	=44	=44	=44	=44	=44	=44	=44	=44	=44	=44	=44	=44	=44	=44	=44	=44	=44	=44	=44
8D\	cor-	8F/	cor-	8B-\	cor-	8BB-/L	.	8b-/L	.	8ff\L	.	8BB-\L	.	8F\L	.	16g\LL	.	8b-\L	.
.	.	.	.	.	.	.	.	.	.	.	.	.	.	.	.	16b-\	.	.	.
!	!	!	!	!LO:TX:a:t=P:problem= ozdobnik jak nieskończoność	!	!	!	!	!	!	!	!	!	!	!	!	!	!	!
8D\	-nu	8F/	-nu	8B-\	-nu	8BB-/	.	8b-/	.	8ff\	.	8F\	.	8A-\	.	16g\	.	8b-T\	.
.	.	.	.	.	.	.	.	.	.	.	.	.	.	.	.	16b-\	.	.	.
4BB-/	e-	4A-/	e-	(8c\L	e-	8BB-/J	.	8b-/	.	8ff\	.	8BB-\	.	8F\	.	16g\	.	8cc\	.
.	.	.	.	.	.	.	.	.	.	.	.	.	.	.	.	16b-\	.	.	.
.	.	.	.	8d\J)	.	8r	.	8b-/J	.	8ff\J	.	8F\J	.	8A-\J	.	16g\	.	8ddn\J	.
.	.	.	.	.	.	.	.	.	.	.	.	.	.	.	.	16b-\JJ	.	.	.
*	*	*	*	*	*	*	*	*Xtremolo	*	*	*	*Xtremolo	*	*Xtremolo	*	*Xtremolo	*	*	*
!	!	!	!	!	!	!	!	!	!	!	!	!LO:LB:g=original	!	!	!	!	!	!	!
=45	=45	=45	=45	=45	=45	=45	=45	=45	=45	=45	=45	=45	=45	=45	=45	=45	=45	=45	=45
8E-\	-jus	8G/	-jus	8e-\	-jus	8E-\	.	4ee-\	.	4gg\	.	8E-\L	.	8G\L	.	16g\LL	.	16ee-'\LL	.
*	*	*	*	*	*	*	*	*	*	*	*	*	*	*	*	*	*	*Xtuplet	*
!	!	!	!	!	!	!	!	!	!	!	!	!	!	!	!	!	!	!LO:TX:a:t=P:problem=klamra, brak oznaczenia trioli	!
.	.	.	.	.	.	.	.	.	.	.	.	.	.	.	.	16b-\	.	48ff\L	.
.	.	.	.	.	.	.	.	.	.	.	.	.	.	.	.	.	.	48ee-\	.
.	.	.	.	.	.	.	.	.	.	.	.	.	.	.	.	.	.	48dd\J	.
8r	.	8r	.	8r	.	8r	.	.	.	.	.	8G\	.	8B-\	.	16g\	.	16ee-\	.
.	.	.	.	.	.	.	.	.	.	.	.	.	.	.	.	16b-\JJ	.	16gg\JJ	.
4r	.	4r	.	4r	.	8BB-/	.	4r	.	4r	.	8BB-\	.	8F\	.	16f\LL	.	16bb-\LL	.
.	.	.	.	.	.	.	.	.	.	.	.	.	.	.	.	16b-\	.	16b-\	.
.	.	.	.	.	.	8r	.	.	.	.	.	8F\J	.	8B-\J	.	16f\	.	16cc\	.
.	.	.	.	.	.	.	.	.	.	.	.	.	.	.	.	16b-\JJ	.	16dd\JJ	.
!	!	!	!	!	!	!	!	!	!	!	!	!	!	!	!	!	!	!LO:LB:g=original	!
=46	=46	=46	=46	=46	=46	=46	=46	=46	=46	=46	=46	=46	=46	=46	=46	=46	=46	=46	=46
*	*	*	*	*	*	*	*	*tremolo	*	*	*	*tremolo	*	*tremolo	*	*tremolo	*	*	*
8E-\	e-	8G/	e-	8e-\	e-	8E-\L	.	8g/L	.	8ee-\L	.	8E-\L	.	8G\L	.	16g\LL	.	8ee-\L	.
.	.	.	.	.	.	.	.	.	.	.	.	.	.	.	.	16b-\	.	.	.
8G\	-xal-	8G/	-xal-	8e-\	-xal-	8E-\	.	8g/	.	8ee-\	.	8G\	.	8B-\	.	16g\	.	8ee-\J	.
.	.	.	.	.	.	.	.	.	.	.	.	.	.	.	.	16b-\	.	.	.
8B-\	-ta-	8G/	-at-	(16g\LL	-ta-	8E-\J	.	8g/	.	8ee-\	.	8E-\	.	8G\	.	16g\	.	16gg\LL	.
.	.	.	.	16f\JJ)	.	.	.	.	.	.	.	.	.	.	.	16b-\	.	16ff\	.
16G\	-bi-	16G/	-bi-	16e-\	-bi-	8r	.	8g/J	.	8ee-\J	.	8G\J	.	8B-\J	.	16g\	.	16ee-\	.
16E-\	-tur	16G/	-tur	16dn\	-tur	.	.	.	.	.	.	.	.	.	.	16b-\JJ	.	16dd\JJ	.
!LO:LB:g=original	!	!	!	!LO:LB:g=original	!	!	!	!	!	!	!	!	!	!	!	!	!	!	!
=47	=47	=47	=47	=47	=47	=47	=47	=47	=47	=47	=47	=47	=47	=47	=47	=47	=47	=47	=47
8E-\	cor-	8A-\	cor-	8c\	cor-	8AA-/L	.	8e-/L	.	8ee-\L	.	8E-\L	.	8A-\L	.	16a-\LL	.	8cc\L	.
.	.	.	.	.	.	.	.	.	.	.	.	.	.	.	.	16cc\	.	.	.
8E-\	-nu	8A-\	-nu	8c\	-nu	8AA-/	.	8e-/	.	8ee-\	.	8A-\	.	8c\	.	16a-\	.	8cc\J	.
.	.	.	.	.	.	.	.	.	.	.	.	.	.	.	.	16cc\	.	.	.
8E-\	e-	8A-\	e-	(16f\LL	e-	8AA-/J	.	8e-/	.	8ee-\	.	8E-\	.	8A-\	.	16a-\	.	16ff\LL	.
.	.	.	.	16e-\JJ)	.	.	.	.	.	.	.	.	.	.	.	16cc\	.	16ee-\	.
8E-\	-jus	8A-\	-jus	(16dn\LL	-jus	8r	.	8e-/J	.	8ee-\J	.	8A-\J	.	8c\J	.	16a-\	.	16dd\	.
.	.	.	.	16c\JJ)	.	.	.	.	.	.	.	.	.	.	.	16cc\JJ	.	16cc\JJ	.
!	!	!	!	!	!	!LO:LB:g=original	!	!	!	!	!	!	!	!	!	!LO:LB:g=original	!	!	!
=48	=48	=48	=48	=48	=48	=48	=48	=48	=48	=48	=48	=48	=48	=48	=48	=48	=48	=48	=48
8D\	cor-	8F/	cor-	8B-\	cor-	8BB-/L	.	8b-/L	.	8ff\L	.	8BB-\L	.	8F\L	.	16f\LL	.	8b-\L	.
.	.	.	.	.	.	.	.	.	.	.	.	.	.	.	.	16a-\	.	.	.
!	!	!	!	!LO:TX:a:t=P:problem= ozdobnik jak nieskończoność	!	!	!	!	!	!	!	!	!	!	!	!	!	!	!
8D\	-nu	8F/	-nu	8B-\	-nu	8BB-/	.	8b-/	.	8ff\	.	8F\	.	8A-\	.	16f\	.	8b-T\	.
.	.	.	.	.	.	.	.	.	.	.	.	.	.	.	.	16a-\	.	.	.
4BB-/	e-	4A-\	e-	(8c\L	e-	8BB-/J	.	8b-/	.	8ff\	.	8BB-\	.	8F\	.	16f\	.	8cc\	.
.	.	.	.	.	.	.	.	.	.	.	.	.	.	.	.	16a-\	.	.	.
.	.	.	.	8d\J)	.	8r	.	8b-/J	.	8ff\J	.	8F\J	.	8A-\J	.	16f\	.	8dd\J	.
.	.	.	.	.	.	.	.	.	.	.	.	.	.	.	.	16a-\JJ	.	.	.
*	*	*	*	*	*	*	*	*	*	*	*	*	*	*	*	*Xtremolo	*	*	*
*	*	*	*	*	*	*	*	*	*	*	*	*	*	*Xtremolo	*	*	*	*	*
*	*	*	*	*	*	*	*	*	*	*	*	*Xtremolo	*	*	*	*	*	*	*
*	*	*	*	*	*	*	*	*Xtremolo	*	*	*	*	*	*	*	*	*	*	*
*	*	*	*	*	*	*	*	*Xtremolo	*	*	*	*Xtremolo	*	*Xtremolo	*	*Xtremolo	*	*	*
!	!	!LO:LB:g=original	!	!	!	!	!	!	!	!	!	!	!	!	!	!	!	!	!
=49	=49	=49	=49	=49	=49	=49	=49	=49	=49	=49	=49	=49	=49	=49	=49	=49	=49	=49	=49
8E-\	-jus	8G/	-jus	8e-\	-jus	8E-\	.	16b-/	.	16gg\KL	.	16E-\KL	.	16G\KL	.	16g/KL	.	16ee-\	.
.	.	.	.	.	.	.	.	8b-/L	.	8gg\	.	8E-\	.	8G\	.	8g/	.	8bb-^\L	.
8r	.	8r	.	8r	.	8r	.	.	.	.	.	.	.	.	.	.	.	.	.
.	.	.	.	.	.	.	.	8b-/	.	8gg\	.	8E-\	.	8G\	.	8g/	.	32gg\LL	.
.	.	.	.	.	.	.	.	.	.	.	.	.	.	.	.	.	.	32ee-\JJJ	.
4r	.	4r	.	4r	.	8E-\	.	.	.	.	.	.	.	.	.	.	.	16b-\	.
.	.	.	.	.	.	.	.	8b-/J	.	8gg\	.	8E-\	.	8G\	.	8g/	.	8gg^\L	.
.	.	.	.	.	.	8r	.	.	.	.	.	.	.	.	.	.	.	.	.
.	.	.	.	.	.	.	.	16b-/	.	16gg\Jk	.	16E-\Jk	.	16G\Jk	.	16g/Jk	.	32ee-\LL	.
.	.	.	.	.	.	.	.	.	.	.	.	.	.	.	.	.	.	32b-\JJJ	.
!	!	!	!	!	!	!	!	!LO:PB:g=original	!	!	!	!	!	!LO:LB:g=original	!	!	!	!	!
=50	=50	=50	=50	=50	=50	=50	=50	=50	=50	=50	=50	=50	=50	=50	=50	=50	=50	=50	=50
!LO:TX:a:t=3.	!	!LO:TX:a:t=3.	!	!LO:TX:a:t=3.	!	!	!	!	!	!	!	!	!	!	!	!	!	!	!
!LO:N:vis=0	!	!LO:N:vis=0	!	!LO:N:vis=0	!	!	!	!	!	!	!	!	!	!	!	!	!	!	!
1r	.	1r	.	1r	.	8E-\	.	16g/KL	.	16ee-\KL	.	16E-\KL	.	16G\	.	16B-/KL	.	16g\	.
.	.	.	.	.	.	.	.	8g/	.	8ee-\	.	8E-\	.	8e-\L	.	8B-/	.	8ee-^\L	.
.	.	.	.	.	.	8r	.	.	.	.	.	.	.	.	.	.	.	.	.
.	.	.	.	.	.	.	.	8g/	.	8ee-\	.	8E-\	.	32B-\LL	.	8B-/	.	32b-\LL	.
.	.	.	.	.	.	.	.	.	.	.	.	.	.	32G\JJJ	.	.	.	32g\JJJ	.
.	.	.	.	.	.	8E-\	.	.	.	.	.	.	.	16E-\	.	.	.	16e-/	.
.	.	.	.	.	.	.	.	8g/	.	8ee-\	.	8E-\	.	8B-\L	.	8B-/	.	8b-^\L	.
.	.	.	.	.	.	8r	.	.	.	.	.	.	.	.	.	.	.	.	.
.	.	.	.	.	.	.	.	16g/Jk	.	16ee-\Jk	.	16E-\Jk	.	32G\LL	.	16B-/Jk	.	32g\LL	.
.	.	.	.	.	.	.	.	.	.	.	.	.	.	32E-\JJJ	.	.	.	32e-\JJJ	.
!	!	!	!	!	!	!	!	!	!	!LO:LB:g=original	!	!LO:LB:g=original	!	!	!	!	!	!	!
=51	=51	=51	=51	=51	=51	=51	=51	=51	=51	=51	=51	=51	=51	=51	=51	=51	=51	=51	=51
!	!	!	!	!	!	!	!	!	!	!	!	!	!	!LO:TX:t=P:problem=mixed beam	!	!LO:TX:t=P:problem=mixed beam	!	!LO:TX:t=P:problem=mixed beam	!
.	.	.	.	.	.	8E-\L	.	8g/L	.	8ee-\L	.	8E-\L	.	8BB-/L	.	8G/L	.	8B-/L	.
.	.	.	.	.	.	8BB-\	.	8b-/	.	8ff\	.	8BB-\	.	8F\	.	8a-\	.	8dd\	.
.	.	.	.	.	.	8E-\	.	8g/	.	8ee-\	.	8E-\	.	8E-\	.	8g\	.	8ee-\	.
.	.	.	.	.	.	8BB-\J	.	8b-/J	.	8ff\J	.	8BB-\J	.	8F\J	.	8a-\J	.	8dd\J	.
=52	=52	=52	=52	=52	=52	=52	=52	=52	=52	=52	=52	=52	=52	=52	=52	=52	=52	=52	=52
2r	.	2r	.	2r	.	4E-\	.	4g/	.	4ee-\	.	4E-\	.	4G\	.	4g\	.	4ee-\	.
.	.	.	.	.	.	4E-\	.	4g/	.	4ee-\	.	4E-\	.	4B-\	.	4b-\	.	4gg\	.
=53	=53	=53	=53	=53	=53	=53	=53	=53	=53	=53	=53	=53	=53	=53	=53	=53	=53	=53	=53
!LO:TX:a:t=1	!	!LO:TX:a:t=1	!	!LO:TX:a:t=1	!	!	!	!	!	!	!	!	!	!LO:TX:b:t=Sanctus Verte.	!	!	!	!	!
2r;	.	2r;	.	2r;	.	2E-;\	.	2g;/	.	2ee-;\	.	2E-;\	.	2B-;\	.	2g;\	.	2ee-;\	.
==;;	==	==;;	==	==;;	==	==;;	==;;	==;;	==	==;;	==	==;;	==	==;;	==	==;;	==	==;;	==
*-	*-	*-	*-	*-	*-	*-	*-	*-	*-	*-	*-	*-	*-	*-	*-	*-	*-	*-	*-
!!!system-decoration: [(g1)][(g2)][(g3)]
!!!RDF**kern: >= above
!!!RDF**kern: <= below
!!!ENC: Anna Matuszewska
!!!END: 2020-12-28
!!!ENC: Marta Chmielewska
!!!END: 2020-07-02
